src/icons/file-git.svg

<svg width="16" height="16" viewBox="0 0 16 16" fill="none" xmlns="http://www.w3.org/2000/svg">
<path fill-rule="evenodd" clip-rule="evenodd" d="M1.50169 8.61804C1.65007 9.07469 2.04609 9.47071 2.83812 10.2627L5.73726 13.1619C6.52929 13.9539 6.92531 14.3499 7.38197 14.4983C7.78365 14.6288 8.21635 14.6288 8.61803 14.4983C9.07469 14.3499 9.47071 13.9539 10.2627 13.1619L13.1619 10.2627C13.9539 9.47071 14.3499 9.07469 14.4983 8.61804C14.6288 8.21635 14.6288 7.78366 14.4983 7.38197C14.3499 6.92531 13.9539 6.52929 13.1619 5.73726L10.2627 2.83812C9.47071 2.04609 9.07469 1.65007 8.61803 1.5017C8.21635 1.37118 7.78365 1.37118 7.38197 1.5017C7.05367 1.60836 6.75672 1.84302 6.32144 2.26079L11.5303 7.46967C11.8232 7.76257 11.8232 8.23744 11.5303 8.53033C11.2374 8.82323 10.7626 8.82323 10.4697 8.53033L8.5 6.56066V11C8.5 11.4142 8.16421 11.75 7.75 11.75C7.33579 11.75 7 11.4142 7 11V5.06066L5.25736 3.31802L2.83812 5.73726C2.04609 6.52929 1.65007 6.92531 1.50169 7.38197C1.37118 7.78366 1.37118 8.21635 1.50169 8.61804Z" fill="#F17F66"/>
</svg>

<svg xmlns="http://www.w3.org/2000/svg" width="16" height="16" fill="none"><path fill="#F17F66" fill-rule="evenodd" d="M1.502 8.618c.148.457.544.853 1.336 1.645l2.9 2.899c.791.792 1.187 1.188 1.644 1.336a2 2 0 0 0 1.236 0c.457-.148.853-.544 1.645-1.336l2.899-2.9c.792-.791 1.188-1.187 1.336-1.644a2 2 0 0 0 0-1.236c-.148-.457-.544-.853-1.336-1.645l-2.9-2.899c-.791-.792-1.187-1.188-1.644-1.336a2 2 0 0 0-1.236 0c-.328.106-.625.341-1.06.759L11.53 7.47a.75.75 0 0 1-1.06 1.06L8.5 6.56V11A.75.75 0 0 1 7 11V5.06L5.257 3.319l-2.419 2.42c-.792.791-1.188 1.187-1.336 1.644a2 2 0 0 0 0 1.236" clip-rule="evenodd"/></svg>
